X: 21572
T: Kilglass Lakes
R: jig
M: 6/8
K: Dmajor
E|:DED DFA|BAF d2 e|f3 efg|fdB AFE|
DED DFA|BAF d2 e|f3 efg|1 fdc dAF:|2 fdc d2 e||
faa gbb|afe f2 e|f3 dBA|(3Bcd BAF E|
DFE DFA|BAF A3|f3 efg|1 fdc d2 e:|2 fdc d2 E||

